gtk-icons/Papirus-Dark-GTK/16x16/actions/games-config-tiles.svg

<?xml version="1.0" encoding="UTF-8" standalone="no"?>
<!-- Created with Inkscape (http://www.inkscape.org/) -->

<svg
   xmlns:dc="http://purl.org/dc/elements/1.1/"
   xmlns:cc="http://creativecommons.org/ns#"
   xmlns:rdf="http://www.w3.org/1999/02/22-rdf-syntax-ns#"
   xmlns:svg="http://www.w3.org/2000/svg"
   xmlns="http://www.w3.org/2000/svg"
   xmlns:sodipodi="http://sodipodi.sourceforge.net/DTD/sodipodi-0.dtd"
   xmlns:inkscape="http://www.inkscape.org/namespaces/inkscape"
   width="16"
   height="16"
   id="svg3049"
   version="1.1"
   inkscape:version="0.91 r13725"
   sodipodi:docname="games-config-tiles.svg"
   inkscape:export-filename="/home/uri/.kde/share/icons/NITRUX-KDE/16x16/actions/view-right-new.png"
   inkscape:export-xdpi="30"
   inkscape:export-ydpi="30">
  <defs
     id="defs3051">
    <style
       type="text/css"
       id="current-color-scheme">
      .ColorScheme-Text {
        color:#4d4d4d;
      }
      .ColorScheme-Background {
        color:#eff0f1;
      }
      .ColorScheme-Highlight {
        color:#3daee9;
      }
      .ColorScheme-ViewText {
        color:#31363b;
      }
      .ColorScheme-ViewBackground {
        color:#fcfcfc;
      }
      .ColorScheme-ViewHover {
        color:#93cee9;
      }
      .ColorScheme-ViewFocus{
        color:#3daee9;
      }
      .ColorScheme-ButtonText {
        color:#31363b;
      }
      .ColorScheme-ButtonBackground {
        color:#eff0f1;
      }
      .ColorScheme-ButtonHover {
        color:#93cee9;
      }
      .ColorScheme-ButtonFocus{
        color:#3daee9;
      }
      </style>
  </defs>
  <sodipodi:namedview
     id="base"
     pagecolor="#ffffff"
     bordercolor="#666666"
     borderopacity="1.0"
     inkscape:pageopacity="0.0"
     inkscape:pageshadow="2"
     inkscape:zoom="30.14"
     inkscape:cx="-0.7521892"
     inkscape:cy="5.9655959"
     inkscape:document-units="px"
     inkscape:current-layer="layer1"
     showgrid="false"
     fit-margin-top="0"
     fit-margin-left="0"
     fit-margin-right="0"
     fit-margin-bottom="0"
     inkscape:window-width="1600"
     inkscape:window-height="847"
     inkscape:window-x="0"
     inkscape:window-y="30"
     inkscape:window-maximized="1"
     inkscape:showpageshadow="false"
     borderlayer="true"
     inkscape:snap-bbox="true"
     inkscape:snap-global="true"
     showguides="false">
    <inkscape:grid
       type="xygrid"
       id="grid4085" />
    <sodipodi:guide
       position="2,15"
       orientation="12,0"
       id="guide4075" />
    <sodipodi:guide
       position="17,2"
       orientation="0,12"
       id="guide4077" />
    <sodipodi:guide
       position="14,13"
       orientation="-12,0"
       id="guide4079" />
    <sodipodi:guide
       position="0,14"
       orientation="0,-12"
       id="guide4081" />
  </sodipodi:namedview>
  <metadata
     id="metadata3054">
    <rdf:RDF>
      <cc:Work
         rdf:about="">
        <dc:format>image/svg+xml</dc:format>
        <dc:type
           rdf:resource="http://purl.org/dc/dcmitype/StillImage" />
        <dc:title></dc:title>
      </cc:Work>
    </rdf:RDF>
  </metadata>
  <g
     inkscape:label="Capa 1"
     inkscape:groupmode="layer"
     id="layer1"
     transform="translate(-421.71429,-531.79074)">
    <g
       transform="translate(-38.260002,-6.3485488)"
       id="layer1-0"
       inkscape:label="Capa 1" />
    <path
       style="color:#4d4d4d;display:inline;overflow:visible;visibility:visible;fill:#ffffff;fill-opacity:1;fill-rule:nonzero;stroke:none;stroke-width:2;marker:none;enable-background:accumulate;opacity:0.72"
       d="M 1 1 L 1 15 L 3 15 L 9 15 L 10 15 L 13 15 L 15 15 L 15 1 L 1 1 z M 3 3 L 5 3 L 7 3 L 9 3 L 11 3 L 13 3 L 13 5 L 13 7 L 13 9 L 13 11 L 13 13 L 11 13 L 9 13 L 7 13 L 5 13 L 3 13 L 3 11 L 3 9 L 3 7 L 3 5 L 3 3 z M 4.0214844 4 C 4.0099427 4 4 4.0099427 4 4.0214844 L 4 4.9785156 C 4 4.9900573 4.0099427 5 4.0214844 5 L 11.978516 5 C 11.990057 5 12 4.9900573 12 4.9785156 L 12 4.0214844 C 12 4.0099427 11.990057 4 11.978516 4 L 4.0214844 4 z M 4.0214844 7 C 4.0099427 7 4 7.0099427 4 7.0214844 L 4 7.9785156 C 4 7.9900573 4.0099427 8 4.0214844 8 L 11.978516 8 C 11.990057 8 12 7.9900573 12 7.9785156 L 12 7.0214844 C 12 7.0099427 11.990057 7 11.978516 7 L 4.0214844 7 z M 4.0214844 9.8007812 C 4.0099427 9.8007812 4 9.8087708 4 9.8203125 L 4 10.779297 C 4 10.790839 4.0099427 10.800781 4.0214844 10.800781 L 11.978516 10.800781 C 11.990057 10.800781 12 10.790839 12 10.779297 L 12 9.8203125 C 12 9.8087708 11.990057 9.8007812 11.978516 9.8007812 L 4.0214844 9.8007812 z "
       transform="translate(421.71429,531.79074)"
       id="path4147" />
  </g>
</svg>

<?xml version="1.0" encoding="UTF-8" standalone="no"?>
<!-- Created with Inkscape (http://www.inkscape.org/) -->
<svg id="svg3049" xmlns:rdf="http://www.w3.org/1999/02/22-rdf-syntax-ns#" xmlns="http://www.w3.org/2000/svg" height="16" width="16" version="1.1" xmlns:cc="http://creativecommons.org/ns#" xmlns:dc="http://purl.org/dc/elements/1.1/">
 <defs id="defs3051">
  <style id="current-color-scheme" type="text/css">.ColorScheme-Text {
        color:#4d4d4d;
      }
      .ColorScheme-Background {
        color:#eff0f1;
      }
      .ColorScheme-Highlight {
        color:#3daee9;
      }
      .ColorScheme-ViewText {
        color:#31363b;
      }
      .ColorScheme-ViewBackground {
        color:#fcfcfc;
      }
      .ColorScheme-ViewHover {
        color:#93cee9;
      }
      .ColorScheme-ViewFocus{
        color:#3daee9;
      }
      .ColorScheme-ButtonText {
        color:#31363b;
      }
      .ColorScheme-ButtonBackground {
        color:#eff0f1;
      }
      .ColorScheme-ButtonHover {
        color:#93cee9;
      }
      .ColorScheme-ButtonFocus{
        color:#3daee9;
      }</style>
 </defs>
 <metadata id="metadata3054">
  <rdf:RDF>
   <cc:Work rdf:about="">
    <dc:format>image/svg+xml</dc:format>
    <dc:type rdf:resource="http://purl.org/dc/dcmitype/StillImage"/>
    <dc:title/>
   </cc:Work>
  </rdf:RDF>
 </metadata>
 <g id="layer1" transform="translate(-421.71 -531.79)">
  <path id="path4147" opacity=".72" style="color:#4d4d4d" d="m1 1v14h2 6 1 3 2v-14h-14zm2 2h2 2 2 2 2v2 2 2 2 2h-2-2-2-2-2v-2-2-2-2-2zm1.0215 1c-0.0116 0-0.0215 0.0099-0.0215 0.0215v0.957c0 0.0116 0.0099 0.0215 0.0215 0.0215h7.9575c0.011 0 0.021-0.0099 0.021-0.0215v-0.957c0-0.0116-0.01-0.0215-0.021-0.0215h-7.9575zm0 3c-0.0116 0-0.0215 0.0099-0.0215 0.0215v0.957c0 0.0116 0.0099 0.0215 0.0215 0.0215h7.9575c0.011 0 0.021-0.0099 0.021-0.0215v-0.957c0-0.0116-0.01-0.0215-0.021-0.0215h-7.9575zm0 2.8008c-0.0116 0-0.0215 0.008-0.0215 0.0195v0.9587c0 0.012 0.0099 0.022 0.0215 0.022h7.9575c0.011 0 0.021-0.01 0.021-0.022v-0.9587c0-0.0115-0.01-0.0195-0.021-0.0195h-7.9575z" transform="translate(421.71 531.79)" fill="#fff"/>
 </g>
</svg>
